svg/color/door.svg

<?xml version="1.0" encoding="UTF-8" ?>
<!DOCTYPE svg PUBLIC "-//W3C//DTD SVG 1.1//EN" "http://www.w3.org/Graphics/SVG/1.1/DTD/svg11.dtd">
<svg width="250pt" height="250pt" viewBox="0 0 250 250" version="1.1" xmlns="http://www.w3.org/2000/svg">
<g id="#ffffffff">
<path fill="#ffffff" opacity="1.00" d=" M 0.00 0.00 L 250.00 0.00 L 250.00 250.00 L 0.00 250.00 L 0.00 0.00 M 105.50 1.78 C 93.25 3.71 81.31 7.52 70.15 12.94 C 32.41 30.98 5.01 69.25 0.92 110.97 C 0.96 118.64 1.13 126.31 0.94 133.98 C 0.46 140.00 1.67 145.98 2.87 151.85 C 8.32 176.40 21.32 199.23 39.77 216.33 C 59.48 234.66 85.24 246.49 112.06 249.09 C 120.03 249.17 128.01 248.81 135.98 249.16 C 175.72 246.23 213.04 222.29 232.87 187.80 C 241.99 171.99 248.05 154.16 249.22 135.89 C 248.25 125.56 250.20 115.14 248.25 104.91 C 243.81 77.90 230.27 52.44 210.14 33.86 C 189.80 14.82 162.83 2.73 134.99 0.81 C 125.15 1.54 115.25 -0.11 105.50 1.78 Z" />
</g>
<g id="#002a3dff">
<path fill="#002a3d" opacity="1.00" d=" M 105.50 1.78 C 115.25 -0.11 125.15 1.54 134.99 0.81 C 162.83 2.73 189.80 14.82 210.14 33.86 C 230.27 52.44 243.81 77.90 248.25 104.91 C 250.20 115.14 248.25 125.56 249.22 135.89 C 248.05 154.16 241.99 171.99 232.87 187.80 C 213.04 222.29 175.72 246.23 135.98 249.16 C 128.01 248.81 120.03 249.17 112.06 249.09 C 85.24 246.49 59.48 234.66 39.77 216.33 C 21.32 199.23 8.32 176.40 2.87 151.85 C 1.67 145.98 0.46 140.00 0.94 133.98 C 1.13 126.31 0.96 118.64 0.92 110.97 C 5.01 69.25 32.41 30.98 70.15 12.94 C 81.31 7.52 93.25 3.71 105.50 1.78 M 73.01 45.91 C 51.40 60.51 36.14 84.20 32.10 110.00 C 29.81 126.79 31.15 144.30 37.63 160.07 C 45.23 179.41 59.36 196.06 77.13 206.82 C 92.02 215.89 109.46 220.90 126.92 220.63 C 148.22 220.89 169.41 213.28 186.06 200.06 C 203.88 186.05 216.53 165.56 220.78 143.27 C 209.60 143.17 198.42 143.31 187.24 143.20 C 182.86 157.92 172.53 170.71 158.95 177.93 C 145.90 185.21 130.73 187.30 116.00 187.28 C 103.64 187.27 91.28 187.27 78.93 187.28 C 76.40 187.22 73.80 187.59 71.36 186.79 C 71.62 145.70 71.37 104.59 71.48 63.49 C 71.83 63.34 72.51 63.03 72.86 62.88 C 88.22 62.62 103.59 62.88 118.96 62.75 C 129.45 63.18 140.11 63.94 149.97 67.87 C 166.85 73.30 181.17 86.85 186.47 103.90 C 186.78 105.30 187.09 107.20 188.95 107.18 C 199.44 107.39 209.91 106.93 220.39 107.16 C 220.14 101.54 217.94 96.08 216.16 90.76 C 206.34 65.06 184.91 44.13 158.97 34.95 C 130.74 24.64 97.74 28.79 73.01 45.91 M 122.12 89.42 C 111.19 91.44 103.66 104.07 107.63 114.59 C 109.11 119.92 113.38 123.55 117.63 126.70 C 114.49 138.09 111.95 149.66 109.50 161.21 C 120.78 161.23 132.07 161.36 143.35 161.15 C 140.96 149.41 137.92 137.80 135.59 126.06 C 143.42 122.08 148.15 112.53 145.78 103.93 C 143.49 93.77 132.24 86.79 122.12 89.42 Z" />
</g>
<g id="#ffbc1fff">
<path fill="#ffbc1f" opacity="1.00" d=" M 73.01 45.91 C 97.74 28.79 130.74 24.64 158.97 34.95 C 184.91 44.13 206.34 65.06 216.16 90.76 C 217.94 96.08 220.14 101.54 220.39 107.16 C 209.91 106.93 199.44 107.39 188.95 107.18 C 187.09 107.20 186.78 105.30 186.47 103.90 C 181.17 86.85 166.85 73.30 149.97 67.87 C 140.11 63.94 129.45 63.18 118.96 62.75 C 103.59 62.88 88.22 62.62 72.86 62.88 C 72.51 63.03 71.83 63.34 71.48 63.49 C 71.37 104.59 71.62 145.70 71.36 186.79 C 73.80 187.59 76.40 187.22 78.93 187.28 C 91.28 187.27 103.64 187.27 116.00 187.28 C 130.73 187.30 145.90 185.21 158.95 177.93 C 172.53 170.71 182.86 157.92 187.24 143.20 C 198.42 143.31 209.60 143.17 220.78 143.27 C 216.53 165.56 203.88 186.05 186.06 200.06 C 169.41 213.28 148.22 220.89 126.92 220.63 C 109.46 220.90 92.02 215.89 77.13 206.82 C 59.36 196.06 45.23 179.41 37.63 160.07 C 31.15 144.30 29.81 126.79 32.10 110.00 C 36.14 84.20 51.40 60.51 73.01 45.91 Z" />
<path fill="#ffbc1f" opacity="1.00" d=" M 122.12 89.42 C 132.24 86.79 143.49 93.77 145.78 103.93 C 148.15 112.53 143.42 122.08 135.59 126.06 C 137.92 137.80 140.96 149.41 143.35 161.15 C 132.07 161.36 120.78 161.23 109.50 161.21 C 111.95 149.66 114.49 138.09 117.63 126.70 C 113.38 123.55 109.11 119.92 107.63 114.59 C 103.66 104.07 111.19 91.44 122.12 89.42 Z" />
</g>
</svg>

<?xml version="1.0" encoding="utf-8"?>
<!-- Generator: Adobe Illustrator 26.0.3, SVG Export Plug-In . SVG Version: 6.00 Build 0)  -->
<svg version="1.1" id="Layer_1" xmlns="http://www.w3.org/2000/svg" xmlns:xlink="http://www.w3.org/1999/xlink" x="0px" y="0px"
	 viewBox="0 0 250 250" style="enable-background:new 0 0 250 250;" xml:space="preserve">
<style type="text/css">
	.st0{fill:#002A3D;}
	.st1{fill:#FFBC1F;}
</style>
<g id="_x23_002a3dff">
	<path class="st0" d="M105.5,1.8c9.8-1.9,19.7-0.2,29.5-1c27.8,1.9,54.8,14,75.1,33c20.1,18.6,33.7,44,38.1,71.1
		c1.9,10.2,0,20.6,1,31c-1.2,18.3-7.2,36.1-16.4,51.9c-19.8,34.5-57.1,58.4-96.9,61.4c-8-0.4-15.9,0-23.9-0.1
		c-26.8-2.6-52.6-14.4-72.3-32.8c-18.5-17.1-31.5-39.9-36.9-64.5C1.7,146,0.5,140,0.9,134c0.2-7.7,0-15.3,0-23
		c4.1-41.7,31.5-80,69.2-98C81.3,7.5,93.2,3.7,105.5,1.8 M73,45.9C51.4,60.5,36.1,84.2,32.1,110c-2.3,16.8-0.9,34.3,5.5,50.1
		c7.6,19.3,21.7,36,39.5,46.8c14.9,9.1,32.3,14.1,49.8,13.8c21.3,0.3,42.5-7.4,59.1-20.6c17.8-14,30.5-34.5,34.7-56.8
		c-11.2-0.1-22.4,0-33.5-0.1c-4.4,14.7-14.7,27.5-28.3,34.7c-13.1,7.3-28.2,9.4-42.9,9.4c-12.4,0-24.7,0-37.1,0
		c-2.5-0.1-5.1,0.3-7.6-0.5c0.3-41.1,0-82.2,0.1-123.3c0.3-0.2,1-0.5,1.4-0.6c15.4-0.3,30.7,0,46.1-0.1c10.5,0.4,21.2,1.2,31,5.1
		c16.9,5.4,31.2,19,36.5,36c0.3,1.4,0.6,3.3,2.5,3.3c10.5,0.2,21-0.2,31.4,0c-0.2-5.6-2.4-11.1-4.2-16.4
		C206.3,65.1,184.9,44.1,159,35C130.7,24.6,97.7,28.8,73,45.9 M122.1,89.4c-10.9,2-18.5,14.7-14.5,25.2c1.5,5.3,5.8,9,10,12.1
		c-3.1,11.4-5.7,23-8.1,34.5c11.3,0,22.6,0.1,33.9-0.1c-2.4-11.7-5.4-23.3-7.8-35.1c7.8-4,12.6-13.5,10.2-22.1
		C143.5,93.8,132.2,86.8,122.1,89.4z"/>
</g>
<g id="_x23_ffbc1fff">
	<path class="st1" d="M73,45.9c24.7-17.1,57.7-21.3,86-11c25.9,9.2,47.4,30.1,57.2,55.8c1.8,5.3,4,10.8,4.2,16.4
		c-10.5-0.2-20.9,0.2-31.4,0c-1.9,0-2.2-1.9-2.5-3.3c-5.3-17.1-19.6-30.6-36.5-36c-9.9-3.9-20.5-4.7-31-5.1
		c-15.4,0.1-30.7-0.1-46.1,0.1c-0.3,0.1-1,0.5-1.4,0.6c-0.1,41.1,0.1,82.2-0.1,123.3c2.4,0.8,5,0.4,7.6,0.5c12.3,0,24.7,0,37.1,0
		c14.7,0,29.9-2.1,42.9-9.4c13.6-7.2,23.9-20,28.3-34.7c11.2,0.1,22.4,0,33.5,0.1c-4.2,22.3-16.9,42.8-34.7,56.8
		c-16.6,13.2-37.8,20.8-59.1,20.6c-17.5,0.3-34.9-4.7-49.8-13.8c-17.8-10.8-31.9-27.4-39.5-46.8c-6.5-15.8-7.8-33.3-5.5-50.1
		C36.1,84.2,51.4,60.5,73,45.9z"/>
	<path class="st1" d="M122.1,89.4c10.1-2.6,21.4,4.3,23.7,14.5c2.4,8.6-2.4,18.2-10.2,22.1c2.3,11.7,5.4,23.4,7.8,35.1
		c-11.3,0.2-22.6,0.1-33.9,0.1c2.4-11.6,5-23.1,8.1-34.5c-4.2-3.1-8.5-6.8-10-12.1C103.7,104.1,111.2,91.4,122.1,89.4z"/>
</g>
</svg>
